svgs/sharp-regular/hand-back-point-ribbon.svg

<svg xmlns="http://www.w3.org/2000/svg" viewBox="0 0 448 512"><!--! Font Awesome Pro 6.6.0 by @fontawesome - https://fontawesome.com License - https://fontawesome.com/license (Commercial License) Copyright 2024 Fonticons, Inc. --><path d="M96 0l24 0 80 0 24 0 0 24 0 136 48 0 24 0 0 24 0 8 48 0 24 0 0 24 0 8 40 0 24 0 0 24 0 40 0 96 0 8c0 66.3-53.7 120-120 120l-125.4 0c-26.9 0-53.3-7.1-76.6-20.7l-2.6-1.5C60.7 462.5 32 412.5 32 358.5L32 320l0-10.6 7.9-7.1 56.1-51L96 176l-64 0 43.6-48L32 80l64 0 0-56L96 0zm48 176l0 72 0 13.8 0 2.2 0 8.4 0 71.6 0 16-32 0 0-16 0-42.5L80 330.6l0 27.9c0 37 19.6 71.2 51.6 89.8l2.6 1.5-11.7 20 11.7-20c15.9 9.3 34 14.2 52.4 14.2L312 464c39.8 0 72-32.2 72-72l0-8 0-96 0-16-40 0-24 0 0-24 0-8-48 0-24 0 0-24 0-8-48 0-24 0 0-24 0-8-32 0zm32-96l0-32-32 0 0 32 32 0z"/></svg>

<svg xmlns="http://www.w3.org/2000/svg" viewBox="0 0 448 512"><!--! Font Awesome Pro 6.4.0 by @fontawesome - https://fontawesome.com License - https://fontawesome.com/license (Commercial License) Copyright 2023 Fonticons, Inc. --><path d="M96 0h24 80 24V24 160h48 24v24 8h48 24v24 8h40 24v24 40 96 8c0 66.3-53.7 120-120 120H186.6c-26.9 0-53.3-7.1-76.6-20.7l-2.6-1.5C60.7 462.5 32 412.5 32 358.5V320 309.4l7.9-7.1 56.1-51V176H32l43.6-48L32 80H96V24 0zm48 176v72 13.8V264v8.4V344v16H112V344 301.5L80 330.6v27.9c0 37 19.6 71.2 51.6 89.8l2.6 1.5-11.7 20 11.7-20c15.9 9.3 34 14.2 52.4 14.2H312c39.8 0 72-32.2 72-72v-8V288 272H344 320V248v-8H272 248V216v-8H200 176V184v-8H144zm32-96V48H144V80h32z"/></svg>
